X: 815
T: The Piper's Picnic
N:"Collected by McFadden"
B:O'Neill's 815
Z:Transcribed by Dan G. Petersen, dangp@post6.tele.dk
M:6/8
L:1/8
K:A
E|AcA BGE|cde dBG|AcA BGE|{F}EDE GAB|
AcA BGE|cde dBG|{d}cBA BGE|EFG A2:|
(A/2B/2)|ceA ceA|cee edc|(B/2c/d)G (B/2c/2d)G|Bdd dcB|
cde dcB|{d}cBA Ggf|ecA GED|EFG A2:|


